X: 5
T: Tommy Peoples'
R: mazurka
M: 3/4
L: 1/8
K: Dmaj
|:F>G A>F A2|d>c B>^A B2|ed c>^B c2|(3ABc d>e f2| F>G A2 A2|d>c B2 B2|e>d c2 c2|(3ABC d2 d2:||:f>g a>f d>e|d>c B2 G2|e>d c2 c2|(3ABc d2 d2| f>g a>f d>e|d>c B2 G2|e>d c>^B c2|(3ABc d2 d2:|


Tune 1323	Setting 14661

